X: 46
T:Flo
R:Reel
S:unkno
M:4/4
L:1/8
Q:1/2=112
K:G
|:eA (3AAA gAfA|eA (3AAA eAdA|eA (3AAA edea|gedB GABd:|
eaag baag|eaag  (3efg dg|eaag baag|e2de gdBd|
eaag baag|edef g2ga|bgaf g2ed|eaag edBd|]
